X:1
T:Title
%%score { ( 1 3 ) | ( 2 4 ) }
L:1/8
Q:1/4=104
M:4/4
K:G
V:1 treble nm="Grand Piano"
V:3 treble 
V:2 bass 
V:4 bass 
V:1
 [B,D][B,D][DG]A B B2 [DG] | [EA][EG][EG][CE] [B,D]4 | [B,D][B,D][DG]A B B2 [DB] | %3
w: Edwin~H.~Bookmyer * * * * * *|||
 [^CB][CA][CE][CA] [DA]3 [DA] | [Ec][Fc][FB][FA] [GB] [DG]2 [DG] | [EG][EG][EA][E_B] [^D=B]3 [DB] | %6
w: |||
 [EA][EA][DB][Dc] [Gd] [Gd]2 [Ge] | [Gd][GB] [FB]<[DA] [B,DG]4 | z4 B4[K:bass] | %9
w: |||
 [EA]3 [Ec] [A,CE]4 | A>A ^GA BAFE | [CE][B,D][DG]A B4 | z4 B4[K:bass] | %13
w: ||||
[M:9/8][K:treble] z3 z [Ge]2- [Ge]3 |[M:4/4] [Gd]>[Gd] [G^c][Gc] [Ge][Gd][DGB][B,G] | %15
w: ||
 [EGc][EGc] [DGB]<[CFA] [G,B,DG]4 |] %16
w: |
V:2
 [G,,G,][G,,G,][B,,G,][D,F,D] [G,D] [G,D]2 [B,,G,] | [C,G,][C,G,][C,G,][C,G,] [G,,G,]4 | %2
 [G,,G,][G,,G,][B,,G,][D,F,D] [G,D] [G,D]2 [G,,G,] | [A,,E,][A,,E,][A,,A,][A,,G,] [D,F,]3 [D,F,] | %4
 [D,A,][D,A,][D,D][D,D] [G,D] [G,B,]2 [B,,G,] | [C,G,][C,G,][C,G,][C,E,] [B,,F,]3 [B,,F,] | %6
 [C,E,][C,G,][B,,G,][A,,A,] [G,,B,] [G,,B,]2 [C,G,] | [D,B,][D,D] [D,D]<[D,C] [G,,G,]4 | %8
 [G,B,]3 [G,B,D] [G,D]4 | [C,C]3 [C,G,] z A,,B,,C, | %10
 [D,F,C]>[D,F,C] [D,E,B,][D,F,C] [D,F,D][D,F,C][D,A,C][D,F,C] | %11
 [G,,G,][G,,G,][B,,G,][D,F,D] [G,D]4 | [G,B,]3[K:treble] [G,B,D] [G,DG]4 | %13
[M:9/8][K:bass] [C,C]3 [C,G,] [C,A,]2 z3 |[M:4/4] [D,B,]>[D,B,] [^D,_B,][D,B,] [=D,=B,][D,B,]D,D, | %15
 A,,A,, D,<D, G,,4 |] %16
V:3
 x8 | x8 | x8 | x8 | x8 | x8 | x8 | x8 | D3 G z[K:bass] G,,A,,B,, | x8 | x8 | x8 | %12
 D3 G z[K:bass] G,,A,,B,, |[M:9/8][K:treble] [EA]3 .[Ec]3 [^C,_B,]3 |[M:4/4] x8 | x8 |] %16
V:4
 x8 | x8 | x8 | x8 | x8 | x8 | x8 | x8 | x8 | z4 C,4 | x8 | x8 | x3[K:treble] x5 | %13
[M:9/8][K:bass] x9 |[M:4/4] x8 | x8 |] %16

